actions/16/fcitx-anthy.svg

<?xml version="1.0" encoding="UTF-8" standalone="no"?>
<svg
   width="16"
   height="16"
   version="1.1"
   id="svg7"
   sodipodi:docname="fcitx-anthy.svg"
   inkscape:version="1.2.1 (9c6d41e410, 2022-07-14, custom)"
   xmlns:inkscape="http://www.inkscape.org/namespaces/inkscape"
   xmlns:sodipodi="http://sodipodi.sourceforge.net/DTD/sodipodi-0.dtd"
   xmlns="http://www.w3.org/2000/svg"
   xmlns:svg="http://www.w3.org/2000/svg">
  <sodipodi:namedview
     id="namedview9"
     pagecolor="#000000"
     bordercolor="#000000"
     borderopacity="0.25"
     inkscape:showpageshadow="2"
     inkscape:pageopacity="0"
     inkscape:pagecheckerboard="0"
     inkscape:deskcolor="#d1d1d1"
     showgrid="false"
     inkscape:zoom="50.1875"
     inkscape:cx="7.9900374"
     inkscape:cy="7.9701121"
     inkscape:window-width="1554"
     inkscape:window-height="994"
     inkscape:window-x="182"
     inkscape:window-y="42"
     inkscape:window-maximized="1"
     inkscape:current-layer="svg7" />
  <defs
     id="defs3">
    <style
       id="current-color-scheme"
       type="text/css">
   .ColorScheme-Text { color:#eeeeec; } .ColorScheme-Highlight { color:#367bf0; } .ColorScheme-NeutralText { color:#ffcc44; } .ColorScheme-PositiveText { color:#3db47e; } .ColorScheme-NegativeText { color:#dd4747; }
  </style>
  </defs>
  <path
     style="fill:currentColor"
     class="ColorScheme-Text"
     d="M 2,0 C 0.892,0 0,0.892 0,2 v 12 c 0,1.108 0.892,2 2,2 h 12 c 1.108,0 2,-0.892 2,-2 V 2 C 16,0.892 15.108,0 14,0 Z M 6.334,2 H 7.6113 C 7.5373,2.5556 7.4078,3.1248 7.2227,3.9766 9.7297,3.875 11.609,3.7399 13,3.5762 V 4.8555 C 11.832,4.9885 9.9046,4.9217 6.9453,5.0547 6.649,6.2398 6.2588,8.2716 5.7773,9.3457 L 5.9436696,9.487803 C 7.3139696,8.561903 8.2245,8.0117 9.1875,8.0117 10.41,8.0117 11.355,8.3078 12.021,8.9004 12.688,9.493 13,10.252 13,11.178 13,12.252 12.596,12.667 11.744,13.223 10.929,13.741 9.7058,14 8.0762,14 7.054,14 6.1191,14.006 5,13.945 v -1.447 c 0.9443,0.191 1.8385,0.225 2.9648,0.225 1.1852,0 2.0752,-0.149 2.6682,-0.446 0.629,-0.333 0.943,-0.433 0.943,-1.099 0,-0.593 -0.204,-1.056 -0.611,-1.3889 C 10.557,9.4187 9.9653,9.2344 9.1875,9.2344 7.669,9.2344 6.4447,9.8811 5.1113,11.178 l -1,-0.778 C 4.7039,9.4378 5.2216,6.9747 5.666,5.0117 H 3 V 3.9805 C 3.9591,3.9759 4.9321,3.9653 5.9453,3.9336 Z"
     id="path5"
     sodipodi:nodetypes="sssssssssccccccccscscsccscscsccccccc" />
</svg>

<svg xmlns="http://www.w3.org/2000/svg" width="16" height="16" version="1.1">
 <defs>
  <style id="current-color-scheme" type="text/css">
   .ColorScheme-Text { color:#eeeeec; } .ColorScheme-Highlight { color:#367bf0; } .ColorScheme-NeutralText { color:#ffcc44; } .ColorScheme-PositiveText { color:#3db47e; } .ColorScheme-NegativeText { color:#dd4747; }
  </style>
 </defs>
 <path style="fill:currentColor" class="ColorScheme-Text" d="M 2,0 C 0.892,0 0,0.892 0,2 V 14 C 0,15.108 0.892,16 2,16 H 14 C 15.108,16 16,15.108 16,14 V 2 C 16,0.892 15.108,0 14,0 Z M 6.334,2 H 7.6113 C 7.5373,2.5556 7.4078,3.1248 7.2227,3.9766 9.7297,3.875 11.609,3.7399 13,3.5762 V 4.8555 C 11.832,4.9885 9.9046,4.9217 6.9453,5.0547 6.649,6.2398 6.2588,8.2716 5.7773,9.3457 L 5.8887,9.4004 C 7.259,8.4745 8.2245,8.0117 9.1875,8.0117 10.41,8.0117 11.355,8.3078 12.021,8.9004 12.688,9.493 13,10.252 13,11.178 13,12.252 12.596,12.667 11.744,13.223 10.929,13.741 9.7058,14 8.0762,14 7.054,14 6.1191,14.006 5,13.945 V 12.498 C 5.9443,12.689 6.8385,12.723 7.9648,12.723 9.15,12.723 10.04,12.574 10.633,12.277 11.262,11.944 11.576,11.844 11.576,11.178 11.576,10.585 11.372,10.122 10.965,9.7891 10.557,9.4187 9.9653,9.2344 9.1875,9.2344 7.669,9.2344 6.4447,9.8811 5.1113,11.178 L 4.1113,10.4 C 4.7039,9.4378 5.2216,6.9747 5.666,5.0117 H 3 V 3.9805 C 3.9591,3.9759 4.9321,3.9653 5.9453,3.9336 Z"/>
</svg>
